static/img/clients/tor.svg

<?xml version="1.0" encoding="UTF-8" standalone="no"?>
<svg
   width="83"
   height="81"
   viewBox="0 0 83 81"
   fill="none"
   version="1.1"
   id="svg10"
   sodipodi:docname="tor.svg"
   inkscape:version="1.4 (e7c3feb1, 2024-10-09)"
   xmlns:inkscape="http://www.inkscape.org/namespaces/inkscape"
   xmlns:sodipodi="http://sodipodi.sourceforge.net/DTD/sodipodi-0.dtd"
   xmlns="http://www.w3.org/2000/svg"
   xmlns:svg="http://www.w3.org/2000/svg">
  <sodipodi:namedview
     id="namedview10"
     pagecolor="#ffffff"
     bordercolor="#000000"
     borderopacity="0.25"
     inkscape:showpageshadow="2"
     inkscape:pageopacity="0.0"
     inkscape:pagecheckerboard="0"
     inkscape:deskcolor="#d1d1d1"
     inkscape:zoom="5.5520725"
     inkscape:cx="43.677383"
     inkscape:cy="53.853763"
     inkscape:window-width="1800"
     inkscape:window-height="1035"
     inkscape:window-x="0"
     inkscape:window-y="44"
     inkscape:window-maximized="1"
     inkscape:current-layer="svg10" />
  <g
     clip-path="url(#clip0_2536_345)"
     id="g10"
     transform="matrix(0.7916028,0,0,0.7916028,8.6760585,8.4336782)">
    <path
       d="m 46.031,22.8266 -1.0996,4.3765 c 1.5577,-3.1 4.0777,-5.425 6.9641,-7.4765 -2.1076,2.4162 -4.0319,4.8324 -5.1773,7.2942 1.9701,-2.7809 4.6275,-4.2854 7.6056,-5.3339 -3.9861,3.5103 -7.1474,7.3398 -9.5299,11.1236 l -1.9243,-0.8206 c 0.3207,-3.0544 1.4662,-6.1544 3.1614,-9.1633 z"
       fill="#94a3b8"
       id="path1" />
    <path
       d="m 44.5654,32.6289 1.3287,0.6838 c -0.1374,0.8662 0.0458,2.7809 0.9164,3.2368 3.8486,2.3706 7.4222,4.9236 8.8426,7.5222 5.0398,9.0721 -3.5279,17.506 -10.996,16.6854 4.0318,-2.9632 5.2231,-9.0721 3.7111,-15.7737 -0.5956,-2.5985 -1.5578,-4.9691 -3.253,-7.6589 -0.733,-1.2309 -0.4581,-2.872 -0.5498,-4.6956 z"
       fill="#94a3b8"
       id="path2" />
    <path
       d="m 43.0989,36.959 c -0.2749,1.4132 -0.5957,3.9662 -1.8327,4.9236 -0.504,0.3647 -1.0538,0.7294 -1.6036,1.0941 -2.245,1.5044 -4.4442,2.9177 -5.4522,6.5192 -0.2291,0.775 -0.0458,1.5956 0.1375,2.3706 0.5498,2.2338 2.1075,4.6044 3.3446,6.0177 0,0.0456 0.2291,0.2279 0.2291,0.2735 1.0079,1.1853 1.3287,1.5501 5.1773,2.4162 l -0.0917,0.4103 c -2.3366,-0.5926 -4.2151,-1.1853 -5.4522,-2.5529 0,-0.0456 -0.229,-0.228 -0.229,-0.228 -1.2829,-1.4588 -2.8865,-3.9206 -3.4363,-6.2456 -0.2291,-0.9118 -0.4123,-1.6412 -0.1374,-2.5986 1.0537,-3.7383 3.3446,-5.2427 5.6354,-6.7927 0.504,-0.3191 1.1454,-0.6382 1.6494,-1.0485 1.0538,-0.6839 1.5578,-2.8265 2.0618,-4.5589 z"
       fill="#94a3b8"
       id="path3" />
    <path
       d="m 44.1072,42.8848 c 0.0458,1.5956 -0.1374,2.4162 0.2749,3.5559 0.2291,0.6838 1.0996,1.5956 1.3287,2.5074 0.3207,1.1853 0.6872,2.5073 0.6872,3.3279 0,0.9118 -0.0458,2.6442 -0.4581,4.4677 -0.3208,1.5045 -1.008,2.8265 -2.1992,3.556 -1.2371,-0.228 -2.6574,-0.6839 -3.4821,-1.4133 -1.6494,-1.4133 -3.0697,-3.7839 -3.253,-5.8354 -0.1374,-1.6867 1.4203,-4.1941 3.6195,-5.425 1.8327,-1.0941 2.2909,-2.2794 2.7032,-4.2853 -0.5498,1.7323 -1.0996,3.1456 -2.8864,4.1029 -2.6116,1.3677 -3.9403,3.6015 -3.8028,5.7898 0.1832,2.7809 1.2828,4.65 3.482,6.1545 0.9164,0.6382 2.6574,1.322 3.757,1.5044 v -0.1368 c 0.8247,-0.1367 1.8785,-1.5044 2.4283,-3.2823 0.4582,-1.6412 0.6414,-3.6927 0.5956,-5.0148 -0.0458,-0.775 -0.3665,-2.4162 -1.0079,-3.9206 -0.3208,-0.8206 -0.8706,-1.6412 -1.1913,-2.2339 -0.4123,-0.6838 -0.4123,-1.9603 -0.5956,-3.4191 z"
       fill="#94a3b8"
       id="path4" />
    <path
       d="m 43.8318,49.1309 c 0.0458,1.0941 0.4581,2.4617 0.6414,3.875 0.1374,1.0485 0.0916,2.0971 0.0458,3.0089 -0.0458,1.0485 -0.3665,2.9632 -0.8705,3.9206 -0.4582,-0.228 -0.6414,-0.4559 -0.9622,-0.8206 -0.3665,-0.5015 -0.6414,-1.0486 -0.8705,-1.6412 -0.1832,-0.4559 -0.4123,-1.003 -0.504,-1.5956 -0.1374,-0.9118 -0.0916,-2.3706 0.9622,-3.8295 0.8247,-1.1853 1.008,-1.2764 1.2829,-2.5985 -0.3666,1.1853 -0.6415,1.3221 -1.512,2.325 -0.9621,1.0941 -1.0996,2.7353 -1.0996,4.0574 0,0.5471 0.2291,1.1853 0.4582,1.7324 0.2291,0.5926 0.4581,1.2309 0.7789,1.6868 0.5039,0.7294 1.1454,1.1853 1.4661,1.2308 v -0.0455 c 0.5956,-0.6839 0.9621,-1.3221 1.0996,-2.0059 0.1374,-0.8206 0.1833,-1.5956 0.2749,-2.553 0.0916,-0.8206 0.0458,-1.8691 -0.1833,-2.9633 -0.2749,-1.3676 -0.7789,-2.7809 -1.0079,-3.7838 z"
       fill="#94a3b8"
       id="path5" />
    <path
       d="m 44.0155,35.6816 c 0.0459,1.5956 0.1375,4.5589 0.5957,5.7442 0.1374,0.4103 1.2828,2.1427 2.0617,4.2854 0.5498,1.4588 0.6873,2.8265 0.7789,3.2368 0.3665,1.7323 -0.0916,4.6956 -0.6872,7.4765 -0.3208,1.5044 -1.3746,3.3736 -2.5658,4.103 l -0.2291,0.4103 c 0.6873,-0.0456 2.3367,-1.6412 2.9323,-3.6927 1.008,-3.4192 1.3745,-5.0148 0.9163,-8.8442 -0.0458,-0.3647 -0.229,-1.6412 -0.8247,-2.9633 -0.8705,-2.0515 -2.1075,-4.0118 -2.245,-4.4221 -0.3207,-0.6382 -0.6872,-3.4647 -0.7331,-5.3339 z"
       fill="#94a3b8"
       id="path6" />
    <path
       d="m 44.5648,32.7637 c -0.0916,1.6412 -0.0916,2.9176 0.1833,4.1485 0.3207,1.3221 2.0618,3.2368 2.7948,5.4251 1.3745,4.1942 1.008,9.6648 0.0459,13.9046 -0.3666,1.5044 -2.1076,3.6926 -3.8945,4.3765 l 1.2829,0.3191 c 0.6873,-0.0456 2.5199,-1.7324 3.253,-3.6471 1.1454,-3.0544 1.3745,-6.656 0.9163,-10.4854 -0.0458,-0.3647 -0.6414,-3.6471 -1.237,-5.0148 -0.8247,-2.0515 -2.1534,-3.5103 -2.6116,-4.7868 -0.3665,-0.9573 -0.504,-3.5103 -0.2749,-4.0118 z"
       fill="#94a3b8"
       id="path7" />
    <path
       d="M 8.87336,23.7383 H 33.6602 c 0.9163,0 1.741,0.775 1.741,1.7324 v 7.2942 c 0,0.9573 -0.8247,1.7323 -1.741,1.7323 h -5.0857 c -1.1454,0 -1.6494,0.6383 -1.6494,1.3677 v 23.8429 c 0,0.8206 -0.6414,1.4132 -1.4203,1.4132 H 17.0745 C 16.2957,61.121 15.7,60.5284 15.7,59.7078 V 35.6369 c 0,-0.7294 -0.6872,-1.1853 -1.1912,-1.1853 H 8.87336 c -0.96215,0 -1.74104,-0.775 -1.74104,-1.7323 v -7.2942 c 0,-0.9118 0.77889,-1.6868 1.74104,-1.6868 z"
       fill="#94a3b8"
       id="path8" />
    <path
       d="m 72.4668,33.4023 h 2.1992 c 0.8247,0 1.4661,0.6383 1.4661,1.4133 v 7.7957 c 0,1.0029 0.0458,1.4132 -1.1912,1.4132 -2.4283,0 -3.5279,1.2765 -3.5279,2.6897 v 13.1752 c 0,0.5926 -0.5956,1.1397 -1.2829,1.1397 h -7.8804 c -0.6873,0 -1.2829,-0.5015 -1.2829,-1.1397 V 44.8907 c 0,-0.2735 0,-0.6382 0.0458,-0.8662 0.4124,-5.5618 4.8108,-9.9839 10.3546,-10.5766 0.1374,0 0.7789,-0.0456 1.0996,-0.0456 z"
       fill="#94a3b8"
       id="path9" />
    <path
       d="m 53.7272,40.8337 c -1.3286,-1.1853 -2.978,-2.1882 -4.7191,-3.1456 -0.7789,-0.4103 -3.1613,-2.2794 -2.3366,-4.9236 l -6.002,-2.4618 -0.4124,0.3192 c 2.016,3.6015 0.9622,5.5162 -0.0458,6.1544 -2.0159,1.3677 -4.9482,3.1001 -6.3685,4.6045 -2.7948,2.8721 -3.6195,5.6074 -3.3446,9.1633 0.2749,4.6045 3.6195,8.4339 8.1554,9.9384 1.9701,0.6382 3.8027,0.7294 5.8187,0.7294 3.253,0 6.6434,-0.8662 9.0717,-2.8721 2.6115,-2.1427 4.1235,-5.3795 4.1235,-8.7074 0,-3.328 -1.4204,-6.5192 -3.9403,-8.7987 z M 52.8567,57.656 c -2.245,1.8235 -6.2769,3.1 -8.4302,3.0088 -2.3825,-0.1367 -4.7192,-0.5015 -6.7809,-1.5044 -3.6195,-1.7324 -6.002,-5.5162 -6.1853,-8.5707 -0.3207,-6.2456 2.7032,-8.0236 5.498,-10.303 1.5578,-1.2765 3.757,-1.9148 4.9941,-4.1942 0.229,-0.5015 0.3665,-1.5956 0.0916,-2.7353 -0.1375,-0.4103 -0.6873,-1.778 -0.9163,-2.0971 l 4.49,1.9603 c -0.5498,2.0515 1.1454,4.1942 2.5199,4.9692 1.3745,0.775 3.5279,2.2338 4.8566,3.4191 2.3366,2.0515 3.5279,4.9692 3.5279,8.0237 0,3.0544 -1.2829,6.0633 -3.6654,8.0236 z"
       fill="#94a3b8"
       id="path10" />
  </g>
  <defs
     id="defs10">
    <clipPath
       id="clip0_2536_345">
      <rect
         width="82"
         height="80"
         fill="white"
         transform="translate(0.132324 0.923828)"
         id="rect10" />
    </clipPath>
  </defs>
</svg>

<svg width="83" height="81" viewBox="0 0 83 81" fill="none" xmlns="http://www.w3.org/2000/svg">
<g clip-path="url(#clip0_2536_345)">
<path d="M46.031 22.8266L44.9314 27.2031C46.4891 24.1031 49.0091 21.7781 51.8955 19.7266C49.7879 22.1428 47.8636 24.559 46.7182 27.0208C48.6883 24.2399 51.3457 22.7354 54.3238 21.6869C50.3377 25.1972 47.1764 29.0267 44.7939 32.8105L42.8696 31.9899C43.1903 28.9355 44.3358 25.8355 46.031 22.8266V22.8266Z" fill="#94A3B8"/>
<path d="M44.5654 32.6289L45.8941 33.3127C45.7567 34.1789 45.9399 36.0936 46.8105 36.5495C50.6591 38.9201 54.2327 41.4731 55.6531 44.0717C60.6929 53.1438 52.1252 61.5777 44.6571 60.7571C48.6889 57.7939 49.8802 51.685 48.3682 44.9834C47.7726 42.3849 46.8104 40.0143 45.1152 37.3245C44.3822 36.0936 44.6571 34.4525 44.5654 32.6289V32.6289Z" fill="#94A3B8"/>
<path d="M43.0989 36.959C42.824 38.3722 42.5032 40.9252 41.2662 41.8826C40.7622 42.2473 40.2124 42.612 39.6626 42.9767C37.4176 44.4811 35.2184 45.8944 34.2104 49.4959C33.9813 50.2709 34.1646 51.0915 34.3479 51.8665C34.8977 54.1003 36.4554 56.4709 37.6925 57.8842C37.6925 57.9298 37.9216 58.1121 37.9216 58.1577C38.9295 59.343 39.2503 59.7078 43.0989 60.5739L43.0072 60.9842C40.6706 60.3916 38.7921 59.7989 37.555 58.4313C37.555 58.3857 37.326 58.2033 37.326 58.2033C36.0431 56.7445 34.4395 54.2827 33.8897 51.9577C33.6606 51.0459 33.4774 50.3165 33.7523 49.3591C34.806 45.6208 37.0969 44.1164 39.3877 42.5664C39.8917 42.2473 40.5331 41.9282 41.0371 41.5179C42.0909 40.834 42.5949 38.6914 43.0989 36.959V36.959Z" fill="#94A3B8"/>
<path d="M44.1072 42.8848C44.153 44.4804 43.9698 45.301 44.3821 46.4407C44.6112 47.1245 45.4817 48.0363 45.7108 48.9481C46.0315 50.1334 46.398 51.4554 46.398 52.276C46.398 53.1878 46.3522 54.9202 45.9399 56.7437C45.6191 58.2482 44.9319 59.5702 43.7407 60.2997C42.5036 60.0717 41.0833 59.6158 40.2586 58.8864C38.6092 57.4731 37.1889 55.1025 37.0056 53.051C36.8682 51.3643 38.4259 48.8569 40.6251 47.626C42.4578 46.5319 42.916 45.3466 43.3283 43.3407C42.7785 45.073 42.2287 46.4863 40.4419 47.4436C37.8303 48.8113 36.5016 51.0451 36.6391 53.2334C36.8223 56.0143 37.9219 57.8834 40.1211 59.3879C41.0375 60.0261 42.7785 60.7099 43.8781 60.8923V60.7555C44.7028 60.6188 45.7566 59.2511 46.3064 57.4732C46.7646 55.832 46.9478 53.7805 46.902 52.4584C46.8562 51.6834 46.5355 50.0422 45.8941 48.5378C45.5733 47.7172 45.0235 46.8966 44.7028 46.3039C44.2905 45.6201 44.2905 44.3436 44.1072 42.8848V42.8848Z" fill="#94A3B8"/>
<path d="M43.8318 49.1309C43.8776 50.225 44.2899 51.5926 44.4732 53.0059C44.6106 54.0544 44.5648 55.103 44.519 56.0148C44.4732 57.0633 44.1525 58.978 43.6485 59.9354C43.1903 59.7074 43.0071 59.4795 42.6863 59.1148C42.3198 58.6133 42.0449 58.0662 41.8158 57.4736C41.6326 57.0177 41.4035 56.4706 41.3118 55.878C41.1744 54.9662 41.2202 53.5074 42.274 52.0485C43.0987 50.8632 43.282 50.7721 43.5569 49.45C43.1903 50.6353 42.9154 50.7721 42.0449 51.775C41.0828 52.8691 40.9453 54.5103 40.9453 55.8324C40.9453 56.3795 41.1744 57.0177 41.4035 57.5648C41.6326 58.1574 41.8616 58.7957 42.1824 59.2516C42.6863 59.981 43.3278 60.4369 43.6485 60.4824V60.4369C44.2441 59.753 44.6106 59.1148 44.7481 58.431C44.8855 57.6104 44.9314 56.8354 45.023 55.878C45.1146 55.0574 45.0688 54.0089 44.8397 52.9147C44.5648 51.5471 44.0608 50.1338 43.8318 49.1309V49.1309Z" fill="#94A3B8"/>
<path d="M44.0155 35.6816C44.0614 37.2772 44.153 40.2405 44.6112 41.4258C44.7486 41.8361 45.894 43.5685 46.6729 45.7112C47.2227 47.17 47.3602 48.5377 47.4518 48.948C47.8183 50.6803 47.3602 53.6436 46.7646 56.4245C46.4438 57.9289 45.39 59.7981 44.1988 60.5275L43.9697 60.9378C44.657 60.8922 46.3064 59.2966 46.902 57.2451C47.91 53.8259 48.2765 52.2303 47.8183 48.4009C47.7725 48.0362 47.5893 46.7597 46.9936 45.4376C46.1231 43.3861 44.8861 41.4258 44.7486 41.0155C44.4279 40.3773 44.0614 37.5508 44.0155 35.6816Z" fill="#94A3B8"/>
<path d="M44.5648 32.7637C44.4732 34.4049 44.4732 35.6813 44.7481 36.9122C45.0688 38.2343 46.8099 40.149 47.5429 42.3373C48.9174 46.5315 48.5509 52.0021 47.5888 56.2419C47.2222 57.7463 45.4812 59.9345 43.6943 60.6184L44.9772 60.9375C45.6645 60.8919 47.4971 59.2051 48.2302 57.2904C49.3756 54.236 49.6047 50.6344 49.1465 46.805C49.1007 46.4403 48.5051 43.1579 47.9095 41.7902C47.0848 39.7387 45.7561 38.2799 45.2979 37.0034C44.9314 36.0461 44.7939 33.4931 45.023 32.9916L44.5648 32.7637Z" fill="#94A3B8"/>
<path d="M8.87336 23.7383H33.6602C34.5765 23.7383 35.4012 24.5133 35.4012 25.4707V32.7649C35.4012 33.7222 34.5765 34.4972 33.6602 34.4972H28.5745C27.4291 34.4972 26.9251 35.1355 26.9251 35.8649V59.7078C26.9251 60.5284 26.2837 61.121 25.5048 61.121H17.0745C16.2957 61.121 15.7 60.5284 15.7 59.7078V35.6369C15.7 34.9075 15.0128 34.4516 14.5088 34.4516H8.87336C7.91121 34.4516 7.13232 33.6766 7.13232 32.7193V25.4251C7.13232 24.5133 7.91121 23.7383 8.87336 23.7383Z" fill="#94A3B8"/>
<path d="M72.4668 33.4023H74.666C75.4907 33.4023 76.1321 34.0406 76.1321 34.8156V42.6113C76.1321 43.6142 76.1779 44.0245 74.9409 44.0245C72.5126 44.0245 71.413 45.301 71.413 46.7142V59.8894C71.413 60.482 70.8174 61.0291 70.1301 61.0291H62.2497C61.5624 61.0291 60.9668 60.5276 60.9668 59.8894V44.8907C60.9668 44.6172 60.9668 44.2525 61.0126 44.0245C61.425 38.4627 65.8234 34.0406 71.3672 33.4479C71.5046 33.4479 72.1461 33.4023 72.4668 33.4023V33.4023Z" fill="#94A3B8"/>
<path d="M53.7272 40.8337C52.3986 39.6484 50.7492 38.6455 49.0081 37.6881C48.2292 37.2778 45.8468 35.4087 46.6715 32.7645L40.6695 30.3027L40.2571 30.6219C42.2731 34.2234 41.2193 36.1381 40.2113 36.7763C38.1954 38.144 35.2631 39.8764 33.8428 41.3808C31.048 44.2529 30.2233 46.9882 30.4982 50.5441C30.7731 55.1486 34.1177 58.978 38.6536 60.4825C40.6237 61.1207 42.4563 61.2119 44.4723 61.2119C47.7253 61.2119 51.1157 60.3457 53.544 58.3398C56.1555 56.1971 57.6675 52.9603 57.6675 49.6324C57.6675 46.3044 56.2471 43.1132 53.7272 40.8337V40.8337ZM52.8567 57.656C50.6117 59.4795 46.5798 60.756 44.4265 60.6648C42.044 60.5281 39.7073 60.1633 37.6456 59.1604C34.0261 57.428 31.6436 53.6442 31.4603 50.5897C31.1396 44.3441 34.1635 42.5661 36.9583 40.2867C38.5161 39.0102 40.7153 38.3719 41.9524 36.0925C42.1814 35.591 42.3189 34.4969 42.044 33.3572C41.9065 32.9469 41.3567 31.5792 41.1277 31.2601L45.6177 33.2204C45.0679 35.2719 46.7631 37.4146 48.1376 38.1896C49.5121 38.9646 51.6655 40.4234 52.9942 41.6087C55.3308 43.6602 56.5221 46.5779 56.5221 49.6324C56.5221 52.6868 55.2392 55.6957 52.8567 57.656V57.656Z" fill="#94A3B8"/>
</g>
<defs>
<clipPath id="clip0_2536_345">
<rect width="82" height="80" fill="white" transform="translate(0.132324 0.923828)"/>
</clipPath>
</defs>
</svg>
